X: 42
T: Wind That Shakes the Barley, The
C: R-20
C: Irish
M: C|
Z: Transcribed to abc by Mary Lou Knack
R: reel
K: D
"D"A2AB AFED| "G"B2BA B2d2| "D"A2AB AFED| "G"gfed B2d2 :|
|:\
"D"f2fd "G"g2ge| "D"f2fd "A7"edBA| "D"f2fd "G"g2ge| "A7"agfe "G"B2d2|
"D"f2fd "G"g2ge| "D"f2fd "A7"edBA| "D"fefg "G"abaf| "A7"gfed "G"B2d2 :|
%%text 9/1/98.  Also known as "An Ghaoth a Bhogann".
% ---------- page 22 ----------
